svg/material/cases.svg

<svg xmlns="http://www.w3.org/2000/svg" viewBox="0 0 24 24"><path d="M4,9H2V20a1.9931,1.9931,0,0,0,2,2H18a1.9931,1.9931,0,0,0,2-2H4Z"/><path d="M18,6V4L16,2H11L9,4V6H5V17.004A1.99606,1.99606,0,0,0,6.996,19H20.004A1.99606,1.99606,0,0,0,22,17.004V6ZM11,5a1.059,1.059,0,0,1,1-1h3a1.14673,1.14673,0,0,1,1,1V6H11Z"/></svg>

<svg xmlns="http://www.w3.org/2000/svg" viewBox="0 0 24 24"><path d="M18 6V4l-2-2h-5L9 4v2H5v11s1 2 2 2h13s2-.98 2-2V6h-4zM4 9H2v11c0 1.11.89 2 2 2h14c1.11 0 2-.89 2-2H4V9zm7-4c0-.55.53-1 1-1h3c.46 0 1 .54 1 1v1h-5V5zM5 6h17v11c0 1.1-.9 2-2 2H7c-1.1 0-2-.9-2-2V6z"/></svg>
